Origami/64x64/apps/enpass.svg

<svg width="64" height="64" version="1" xmlns="http://www.w3.org/2000/svg">
 <path d="m4.0507997 32.000415c-0.0118 0.333995-0.050799 0.66199-0.050799 0.999985-3e-7 15.511779 12.487821 27.9996 27.999599 27.9996s27.9996-12.487821 27.9996-27.9996c0-0.337995-0.04-0.66599-0.05-0.999985-0.527992 15.041785-12.775817 26.999614-27.9496 26.999614-15.174183 0-27.421608-11.957829-27.9496-26.999614z" style="opacity:.2"/>
 <rect transform="matrix(0,-1,-1,0,0,0)" x="-60" y="-60" width="55.999" height="55.999" rx="28" ry="28" style="fill:#2496f2"/>
 <path d="m31.9996 11.000715a21.999685 21.999685 0 0 0 -21.999685 21.999685 21.999685 21.999685 0 0 0 21.999685 21.999686 21.999685 21.999685 0 0 0 21.999685 -21.999686 21.999685 21.999685 0 0 0 -21.999685 -21.999685zm-5.999914 5.999914h11.999828c3.323953 0 5.999914 2.716961 5.999914 6.093713v3.050756c0 3.377952-2.675961 6.855902-5.999914 6.855902h-1.999971v12.953015c0 1.687976-0.837988 3.045957-2.499964 3.045957h-2.999958c-1.661976 0-2.437965-1.359981-2.499964-3.045957v-12.953815h-1.999971c-3.323953 0-5.999914-3.47875-5.999914-6.855302v-3.050756c0-3.377952 2.675961-6.093913 5.999914-6.093913z" style="opacity:.2"/>
 <path d="m31.9996 10.000744a21.999685 21.999685 0 0 0 -21.999685 21.999685 21.999685 21.999685 0 0 0 21.999685 21.999685 21.999685 21.999685 0 0 0 21.999685 -21.999685 21.999685 21.999685 0 0 0 -21.999685 -21.999685zm-5.999914 5.999914h11.999828c3.323953 0 5.999914 2.716961 5.999914 6.093713v3.050756c0 3.377952-2.675961 6.855902-5.999914 6.855902h-1.999971v12.953015c0 1.687976-0.837988 3.045956-2.499964 3.045956h-2.999958c-1.661976 0-2.437965-1.35998-2.499964-3.045956v-12.953815h-1.999971c-3.323953 0-5.999914-3.47875-5.999914-6.855302v-3.050756c0-3.376952 2.675961-6.093913 5.999914-6.093913z" style="fill:#ffffff"/>
 <path d="M 32 4 C 16.488222 4 4 16.488222 4 32 C 4 32.113554 4.0112846 32.224034 4.0175781 32.335938 C 4.3691163 17.134398 16.710946 5 32 5 C 47.289054 5 59.630884 17.134398 59.982422 32.335938 C 59.988797 32.224034 60 32.113554 60 32 C 60 16.488222 47.511778 4 32 4 z" style="fill:#ffffff;opacity:.2"/>
</svg>

<svg xmlns="http://www.w3.org/2000/svg" width="64" height="64" version="1">
 <path style="opacity:0.2" d="m 4.0507997,32.000415 c -0.0118,0.333995 -0.050799,0.66199 -0.050799,0.999985 C 4.0000004,48.512179 16.487822,61 31.9996,61 47.511378,61 59.9992,48.512179 59.9992,33.0004 c 0,-0.337995 -0.04,-0.66599 -0.05,-0.999985 C 59.421208,47.0422 47.173383,59.000029 31.9996,59.000029 16.825417,59.000029 4.5779921,47.0422 4.0499997,32.000415 Z"/>
 <rect style="fill:#2496f2" width="55.999" height="55.999" x="-60" y="-60" rx="28" ry="28" transform="matrix(0,-1,-1,0,0,0)"/>
 <path style="opacity:0.2" d="M 31.9996,11.000715 A 21.999685,21.999685 0 0 0 9.9999146,33.0004 21.999685,21.999685 0 0 0 31.9996,55.000086 21.999685,21.999685 0 0 0 53.999285,33.0004 21.999685,21.999685 0 0 0 31.9996,11.000715 Z m -5.999914,5.999914 11.999828,0 c 3.323953,0 5.999914,2.716961 5.999914,6.093713 l 0,3.050756 c 0,3.377952 -2.675961,6.855902 -5.999914,6.855902 l -1.999971,0 0,12.953015 c 0,1.687976 -0.837988,3.045957 -2.499964,3.045957 l -2.999958,0 c -1.661976,0 -2.437965,-1.359981 -2.499964,-3.045957 l 0,-12.953815 -1.999971,0 c -3.323953,0 -5.999914,-3.47875 -5.999914,-6.855302 l 0,-3.050756 c 0,-3.377952 2.675961,-6.093913 5.999914,-6.093913 z"/>
 <path style="fill:#ffffff" d="M 31.9996,10.000744 A 21.999685,21.999685 0 0 0 9.9999146,32.000429 21.999685,21.999685 0 0 0 31.9996,54.000114 21.999685,21.999685 0 0 0 53.999285,32.000429 21.999685,21.999685 0 0 0 31.9996,10.000744 Z m -5.999914,5.999914 11.999828,0 c 3.323953,0 5.999914,2.716961 5.999914,6.093713 l 0,3.050756 c 0,3.377952 -2.675961,6.855902 -5.999914,6.855902 l -1.999971,0 0,12.953015 C 35.999543,46.64202 35.161555,48 33.499579,48 l -2.999958,0 c -1.661976,0 -2.437965,-1.35998 -2.499964,-3.045956 l 0,-12.953815 -1.999971,0 c -3.323953,0 -5.999914,-3.47875 -5.999914,-6.855302 l 0,-3.050756 c 0,-3.376952 2.675961,-6.093913 5.999914,-6.093913 z"/>
 <path style="opacity:0.2;fill:#ffffff" d="M 32 4 C 16.488222 4 4 16.488222 4 32 C 4 32.113554 4.0112846 32.224034 4.0175781 32.335938 C 4.3691163 17.134398 16.710946 5 32 5 C 47.289054 5 59.630884 17.134398 59.982422 32.335938 C 59.988797 32.224034 60 32.113554 60 32 C 60 16.488222 47.511778 4 32 4 z"/>
</svg>
